X:1
T:Till Jesus Comes
T:Till Jesus Comes
T:Eva Green Benson
T:Eva Green Benson, 1906
T:Public Domain Courtesy of the Cyber Hymnal™
T:Public Domain Courtesy of the Cyber Hymnal™
C:Eva Green Benson
Z:Public Domain
Z:Courtesy of the Cyber Hymnal™
%%score ( 1 2 ) ( 3 4 )
L:1/8
Q:1/4=90
M:4/4
K:G
V:1 treble 
V:2 treble 
V:3 bass 
V:4 bass 
V:1
 [Dd][CA][B,G] | [B,D]3 [B,D] [CE][A,F][CA][B,G] | [DB]4 z [DB][^C^A][DB] | %3
w: 1.~“Till Je- sus|comes,” we’ll la- bor, watch and|pray, In His dear|
w: 2.~“I’ll come a-|gain,” we read the mes- sage|sweet, Its words of|
w: 3.~O Bride of|Christ, be faith- ful to thy|Lord, To ev- ery|
w: 4.~The toil and|suf- fering here will soon be|o’er, And with the|
 [Fd]3 [EB] [DB][CA][CE][CG] | [B,D]4 z [DB][CA][B,G] | [B,D]3 [B,D] [CE][A,F][CA][B,G] | %6
w: ser- vice spend each wait- ing|day, And while His|work our lov- ing hands em-|
w: cheer to wea- ry hearts re-|peat; Tell of His|blood that cleans- eth from all|
w: na- tion speed His part- ing|word; Be filled with|faith, and keep the heart a-|
w: Lord we’ll be for- ev- er-|more; Go la- bor|on, and for His com- ing|
 [DB]4 z [DB][EB][^EB] | [FA]3 [DB] [^CA][CE] [CF]>[CE] | D6 ||"^Refrain" [GB][Bd] | %10
w: ploy, We up- ward|gaze, and watch for Him with|joy.||
w: sin, The joy He|gives, the vic- to- ry with-|in.|For He’ll|
w: glow, Let all the|world your hope in Je- sus|know.||
w: pray; O bless- èd|hope! we’ll see His face some|day.||
 [Ac]3 [^E^G] [EB] [FA]2 [DF] | [DG][DA][EG][CE] [B,D]3 [B,D] | %12
w: ||
w: come, yes, He’ll come, His|prom- ise to ful- fill; The|
w: ||
w: ||
 [CE]>[C^D] [CE][CF] [B,G] [B,G]2 [=DA] | [DB][DB][EA][EG] [FA]3 [CD] | %14
w: ||
w: hope of His ap- pear- ing: Our|hearts with rap- ture fill; We’re|
w: ||
w: ||
 [B,D][B,E][B,F][B,G] [DB]3 [B,D] | [C^D][CE][EA][EB] [Ec]2 !fermata![Ge][Ge] | %16
w: ||
w: wait- ing for the dawn Of|earth’s mil- len- nial morn, When we’ll|
w: ||
w: ||
 [Gd][Ge][Gd][GB] [EG][Ec] [DB]>[CA] | [B,G]4 z |] %18
w: ||
w: greet our glor- ious bride- groom, King of|kings.|
w: ||
w: ||
V:2
 x3 | x8 | x8 | x8 | x8 | x8 | x8 | x8 | D6 || x2 | x8 | x8 | x8 | x8 | x8 | x8 | x8 | x5 |] %18
V:3
 z3 | (G,,D,G,)D, G,,D,G,D, | (G,,D,G,D, G,,2) z2 | (D,A,D)A, D,F,A,D, | (G,,D,G,D, G,,2) z2 | %5
 (G,,D,G,)D, G,,D,G,D, | (G,,D,G,D, G,,2) z2 | (A,,D,F,)D, A,,E,A,E, | (D,F,A,F, D,2) || %9
 [D,D][D,D] | [D,D]3 [D,D] [D,D] [D,D]2 [D,A,] | [G,,G,][B,,G,][C,G,][E,G,] G,3 G, | %12
 [C,G,]>[C,G,] [C,G,][A,,A,] [E,G,] [E,G,]2 [D,F,] | G,G,[A,^C][A,C] [D,D]3 [D,F,] | %14
 [G,,G,][G,,G,][G,,G,][G,,G,] [G,,G,]3 [G,,G,] | %15
 [C,G,][C,G,][C,A,][B,,^G,] [A,,A,]2 !fermata![C,G,][C,C] | %16
 [D,B,][D,C][D,B,][D,D] [E,B,][A,,A,] [D,F,]>[D,F,] | [G,,G,]4 z |] %18
V:4
 x3 | x8 | x8 | x8 | x8 | x8 | x8 | x8 | x6 || x2 | x8 | x4 G,3 G, | x8 | G,G, x6 | x8 | x8 | x8 | %17
 x5 |] %18

